src/categories-icons-sprite/categories/svg-cat-child-clothes.svg

<svg width="35" height="34" viewBox="0 0 35 34" fill="none" xmlns="http://www.w3.org/2000/svg">
<path class="p-0B799D" d="M0 0V9.93917H7.17061L5.80452 0H0Z" fill="#5FBEFF"/>
<path class="p-07485E" d="M29.1393 0L27.7734 9.93917H34.944V0H29.1393Z" fill="#4D98CB"/>
<path class="p-FFA7B3" d="M16.1064 1.36608L17.4725 34H21.2689C21.5517 29.6805 25.2849 28.4406 29.1402 26.9298V0H22.6135L16.1064 1.36608Z" fill="#76B7E2"/>
<path class="p-FFDECF" d="M5.80469 0V26.9298C9.66006 28.4406 13.3932 29.6805 13.6761 34H17.4721V1.36608L12.3314 0H5.80469Z" fill="#A1D1FD"/>
<path class="p-07485E" d="M17.4728 6.53022C20.3121 6.53022 22.6137 4.22835 22.6137 1.38901V0H17.4725L16.1064 2.74656L17.4728 6.53022Z" fill="#4D98CB"/>
<path class="p-0B799D" d="M12.3311 0V1.38901C12.3311 4.22835 14.6327 6.52996 17.472 6.53022V0H12.3311Z" fill="#58ADE5"/>
<path class="p-FF415B" d="M17.4725 16.178L16.1064 19.287L17.4725 24.79C21.1133 24.79 24.0646 21.8387 24.0646 18.1979V16.1777L17.4725 16.178Z" fill="#A1D1FD"/>
<path class="p-FF8E8E" d="M10.8809 16.1782V18.1982C10.8809 21.8389 13.8322 24.7902 17.4727 24.7902V16.1782H10.8809Z" fill="#B9DFFC"/>
</svg>

<svg width="35" height="34" fill="none" xmlns="http://www.w3.org/2000/svg"><path class="p-0B799D" d="M0 0v9.94h7.17L5.806 0H0z" fill="#5FBEFF"/><path class="p-07485E" d="M29.14 0l-1.367 9.94h7.171V0h-5.805z" fill="#4D98CB"/><path class="p-FFA7B3" d="M16.106 1.366L17.472 34h3.797c.283-4.32 4.016-5.56 7.871-7.07V0h-6.527l-6.507 1.366z" fill="#76B7E2"/><path class="p-FFDECF" d="M5.805 0v26.93c3.855 1.51 7.588 2.75 7.871 7.07h3.796V1.366L12.332 0H5.804z" fill="#A1D1FD"/><path class="p-07485E" d="M17.473 6.53c2.84 0 5.14-2.302 5.14-5.141V0h-5.14l-1.367 2.747 1.367 3.783z" fill="#4D98CB"/><path class="p-0B799D" d="M12.331 0v1.389a5.141 5.141 0 005.141 5.141V0h-5.14z" fill="#58ADE5"/><path class="p-FF415B" d="M17.473 16.178l-1.367 3.109 1.366 5.503a6.592 6.592 0 006.593-6.592v-2.02h-6.593z" fill="#A1D1FD"/><path class="p-FF8E8E" d="M10.88 16.178v2.02a6.592 6.592 0 006.593 6.592v-8.612H10.88z" fill="#B9DFFC"/></svg>
